packages/sources/icons/src/vitamix/printer-line.svg

<svg width="16" height="16" viewBox="0 0 16 16" xmlns="http://www.w3.org/2000/svg"><path d="M4.00016 12.6667H2.00016C1.82335 12.6667 1.65378 12.5965 1.52876 12.4714C1.40373 12.3464 1.3335 12.1769 1.3335 12V5.33337C1.3335 5.15656 1.40373 4.98699 1.52876 4.86197C1.65378 4.73695 1.82335 4.66671 2.00016 4.66671H4.00016V2.00004C4.00016 1.82323 4.0704 1.65366 4.19542 1.52864C4.32045 1.40361 4.49002 1.33337 4.66683 1.33337H11.3335C11.5103 1.33337 11.6799 1.40361 11.8049 1.52864C11.9299 1.65366 12.0002 1.82323 12.0002 2.00004V4.66671H14.0002C14.177 4.66671 14.3465 4.73695 14.4716 4.86197C14.5966 4.98699 14.6668 5.15656 14.6668 5.33337V12C14.6668 12.1769 14.5966 12.3464 14.4716 12.4714C14.3465 12.5965 14.177 12.6667 14.0002 12.6667H12.0002V14C12.0002 14.1769 11.9299 14.3464 11.8049 14.4714C11.6799 14.5965 11.5103 14.6667 11.3335 14.6667H4.66683C4.49002 14.6667 4.32045 14.5965 4.19542 14.4714C4.0704 14.3464 4.00016 14.1769 4.00016 14V12.6667ZM4.00016 11.3334V10.6667C4.00016 10.4899 4.0704 10.3203 4.19542 10.1953C4.32045 10.0703 4.49002 10 4.66683 10H11.3335C11.5103 10 11.6799 10.0703 11.8049 10.1953C11.9299 10.3203 12.0002 10.4899 12.0002 10.6667V11.3334H13.3335V6.00004H2.66683V11.3334H4.00016ZM5.3335 2.66671V4.66671H10.6668V2.66671H5.3335ZM5.3335 11.3334V13.3334H10.6668V11.3334H5.3335ZM3.3335 6.66671H5.3335V8.00004H3.3335V6.66671Z"/></svg>

<svg width="16" height="16" xmlns="http://www.w3.org/2000/svg"><path d="M4 12.667H2A.667.667 0 0 1 1.333 12V5.333A.667.667 0 0 1 2 4.667h2V2a.667.667 0 0 1 .667-.667h6.666A.667.667 0 0 1 12 2v2.667h2a.667.667 0 0 1 .667.666V12a.667.667 0 0 1-.667.667h-2V14a.667.667 0 0 1-.667.667H4.667A.667.667 0 0 1 4 14v-1.333Zm0-1.334v-.666A.667.667 0 0 1 4.667 10h6.666a.666.666 0 0 1 .667.667v.666h1.333V6H2.667v5.333H4Zm1.333-8.666v2h5.334v-2H5.333Zm0 8.666v2h5.334v-2H5.333Zm-2-4.666h2V8h-2V6.667Z"/></svg>
